dist/images/icons/icon-category-dish.svg

<svg width="44" height="44" viewBox="0 0 44 44" fill="none" xmlns="http://www.w3.org/2000/svg">
<g clip-path="url(#clip0_669_820)">
<path d="M31.158 14.6872L30.6872 13.1556C30.0892 11.4159 28.1775 10.4847 26.4173 11.0758C25.4271 11.4083 24.6495 12.1769 24.3131 13.1556L23.8423 14.6872C23.4461 15.9788 23.3629 17.3445 23.5995 18.6737C23.8153 19.7928 24.5342 20.7543 25.5531 21.2867L25.0259 32.9368C24.9553 33.587 25.1687 34.2362 25.6125 34.7213C26.5671 35.7532 28.1874 35.825 29.2314 34.8816C29.2879 34.8305 29.342 34.7771 29.3936 34.7213C29.8275 34.25 30.0406 33.6198 29.9803 32.9853L29.4501 21.2852C30.4677 20.7526 31.1853 19.7917 31.4007 18.6737C31.6373 17.3445 31.5542 15.9788 31.158 14.6872ZM29.9561 18.4215C29.7973 19.2255 29.2176 19.8851 28.4344 20.1531C28.1371 20.2635 27.9456 20.5505 27.9599 20.8641L28.5173 33.0998C28.5429 33.3399 28.4628 33.5791 28.2973 33.7565C27.8557 34.1886 27.1446 34.1886 26.703 33.7565C26.5292 33.5648 26.4503 33.3068 26.4874 33.052L27.0403 20.8641C27.0546 20.5505 26.8631 20.2635 26.5659 20.1531C25.7827 19.8851 25.203 19.2255 25.0442 18.4215C24.848 17.3179 24.9172 16.1842 25.2459 15.1119L25.7167 13.5796C26.081 12.6061 27.1747 12.1088 28.1598 12.4689C28.6805 12.6592 29.091 13.065 29.2836 13.5796L29.7544 15.1119C30.0827 16.1843 30.1519 17.3179 29.9561 18.4215Z" fill="black"/>
<path d="M19.8 10.9021C19.395 10.9021 19.0667 11.2266 19.0667 11.6269V17.8503L17.0815 19.8123C16.9347 19.957 16.8566 20.1564 16.8667 20.361L17.5083 33.0454C17.5236 33.319 17.4232 33.5865 17.2311 33.784C16.8297 34.1843 16.176 34.1872 15.7709 33.7904C15.7687 33.7883 15.7666 33.7861 15.7645 33.784C15.5723 33.5865 15.472 33.319 15.4873 33.0454L16.1333 20.361C16.1436 20.1565 16.0658 19.9571 15.9192 19.8123L13.9333 17.8503V11.6269C13.9333 11.2266 13.605 10.9021 13.2 10.9021C12.795 10.9021 12.4667 11.2266 12.4667 11.6269V18.1503C12.4667 18.3426 12.544 18.5269 12.6815 18.6628L14.6513 20.6104L14.0257 32.9751C13.9592 34.3258 15.013 35.4741 16.3795 35.5398C17.7459 35.6056 18.9077 34.564 18.9743 33.2134C18.9782 33.1341 18.9782 33.0546 18.9743 32.9752L18.3487 20.6105L20.3185 18.6629C20.456 18.527 20.5333 18.3427 20.5333 18.1504V11.627C20.5333 11.2266 20.205 10.9021 19.8 10.9021Z" fill="black"/>
<path d="M15.4 10.9021C14.995 10.9021 14.6667 11.2266 14.6667 11.6269V17.4255C14.6667 17.8258 14.995 18.1503 15.4 18.1503C15.805 18.1503 16.1334 17.8258 16.1334 17.4255V11.6269C16.1334 11.2266 15.805 10.9021 15.4 10.9021Z" fill="black"/>
<path d="M17.6 10.9021C17.195 10.9021 16.8666 11.2266 16.8666 11.6269V17.4255C16.8666 17.8258 17.195 18.1503 17.6 18.1503C18.005 18.1503 18.3333 17.8258 18.3333 17.4255V11.6269C18.3333 11.2266 18.005 10.9021 17.6 10.9021Z" fill="black"/>
<path d="M22 0.0297852C9.84977 0.0297852 0 9.76524 0 21.7745C0 33.7837 9.84977 43.5192 22 43.5192C34.1502 43.5192 44 33.7837 44 21.7745C43.9863 9.77086 34.1446 0.0433756 22 0.0297852ZM22 42.0695C10.6597 42.0695 1.46667 32.9831 1.46667 21.7745C1.46667 10.5658 10.6597 1.47943 22 1.47943C33.3403 1.47943 42.5333 10.5658 42.5333 21.7745C42.5204 32.9778 33.3349 42.0567 22 42.0695Z" fill="black"/>
<path d="M24.3804 35.3808C24.3411 34.9822 23.9824 34.6906 23.5793 34.7295C23.5698 34.7304 23.5604 34.7315 23.551 34.7328L23.5539 34.732C22.5214 34.8506 21.4785 34.8506 20.446 34.732C20.0436 34.6853 19.6792 34.9701 19.632 35.368C19.5848 35.766 19.8727 36.1263 20.2752 36.173C21.4202 36.3053 22.5768 36.3053 23.7218 36.173C24.1249 36.1342 24.4198 35.7795 24.3804 35.3808Z" fill="black"/>
<path d="M33.2202 12.4344C32.9599 12.1277 32.4974 12.0876 32.1871 12.3449C32.1861 12.3457 32.1851 12.3466 32.184 12.3474C31.8744 12.6055 31.835 13.0626 32.096 13.3687C36.5175 18.5566 36.1793 26.2279 31.3179 31.016C31.031 31.2986 31.0302 31.7577 31.3161 32.0412C31.602 32.3248 32.0665 32.3256 32.3534 32.043C37.756 26.7235 38.1327 18.1994 33.2202 12.4344Z" fill="black"/>
<path d="M17.0859 9.61142C17.0854 9.61142 17.085 9.61041 17.0845 9.61041C17.0838 9.61041 17.083 9.61142 17.0822 9.61142H17.0859Z" fill="black"/>
<path d="M25.4592 7.6832C22.5932 7.00431 19.5874 7.18679 16.8271 8.20725C16.4479 8.34813 16.2563 8.76618 16.3988 9.14082C16.5062 9.42323 16.7794 9.61014 17.0846 9.61041C17.1723 9.60996 17.2592 9.59411 17.3411 9.56339C19.827 8.64459 22.5337 8.48051 25.1145 9.09226C25.5082 9.1863 25.9045 8.9472 25.9996 8.55806C26.0948 8.16892 25.8529 7.77725 25.4592 7.6832Z" fill="black"/>
<path d="M12.6492 30.9797C10.1771 28.5404 8.79154 25.2272 8.79997 21.7745C8.79273 19.016 9.67677 16.3273 11.3234 14.1001C11.5667 13.78 11.5016 13.3257 11.1778 13.0851C10.854 12.8446 10.3943 12.909 10.151 13.229C10.1466 13.2347 10.1424 13.2404 10.1383 13.2462C5.89845 19.0075 6.52233 26.9598 11.6101 32.0061C11.8968 32.2897 12.362 32.2899 12.6489 32.0064C12.9358 31.723 12.936 31.2633 12.6492 30.9797Z" fill="black"/>
</g>
<defs>
<clipPath id="clip0_669_820">
<rect width="44" height="43.4894" fill="white" transform="translate(0 0.0297852)"/>
</clipPath>
</defs>
</svg>

<svg width="44" height="44" fill="none" xmlns="http://www.w3.org/2000/svg"><g clip-path="url(#clip0_669_820)" fill="#000"><path d="M31.158 14.687l-.47-1.531c-.599-1.74-2.51-2.671-4.27-2.08a3.347 3.347 0 00-2.105 2.08l-.47 1.531a8.506 8.506 0 00-.244 3.987 3.754 3.754 0 001.954 2.613l-.527 11.65c-.07.65.143 1.3.587 1.784a2.583 2.583 0 003.78 0 2.248 2.248 0 00.587-1.736l-.53-11.7a3.753 3.753 0 001.95-2.611 8.506 8.506 0 00-.242-3.987zm-1.202 3.735a2.307 2.307 0 01-1.522 1.731.724.724 0 00-.474.711l.557 12.236a.833.833 0 01-.22.657 1.142 1.142 0 01-1.594 0 .863.863 0 01-.216-.705l.553-12.188a.725.725 0 00-.474-.71 2.307 2.307 0 01-1.522-1.732 7.068 7.068 0 01.202-3.31l.47-1.532a1.908 1.908 0 013.568 0l.47 1.532a7.078 7.078 0 01.202 3.31zM19.8 10.902a.73.73 0 00-.733.725v6.223l-1.986 1.962a.72.72 0 00-.214.549l.641 12.684a.98.98 0 01-.277.739c-.401.4-1.055.403-1.46.006l-.007-.006a.98.98 0 01-.277-.739l.646-12.684a.72.72 0 00-.214-.549l-1.986-1.962v-6.223a.73.73 0 00-.733-.725.73.73 0 00-.733.725v6.523a.72.72 0 00.214.513l1.97 1.947-.625 12.365c-.067 1.35.987 2.5 2.354 2.565 1.366.066 2.528-.976 2.594-2.327a2.362 2.362 0 000-.238L18.35 20.61l1.97-1.947a.72.72 0 00.214-.513v-6.523a.73.73 0 00-.733-.725z"/><path d="M15.4 10.902a.73.73 0 00-.733.725v5.798c0 .4.328.725.733.725a.73.73 0 00.733-.724v-5.8a.73.73 0 00-.733-.724zm2.2 0a.73.73 0 00-.733.725v5.798c0 .4.328.725.733.725a.73.73 0 00.733-.724v-5.8a.73.73 0 00-.733-.724z"/><path d="M22 .03C9.85.03 0 9.765 0 21.775c0 12.009 9.85 21.744 22 21.744s22-9.735 22-21.744C43.986 9.77 34.145.043 22 .03zm0 42.04c-11.34 0-20.533-9.087-20.533-20.296C1.467 10.566 10.66 1.48 22 1.48c11.34 0 20.533 9.087 20.533 20.296C42.52 32.977 33.335 42.056 22 42.069z"/><path d="M24.38 35.38a.731.731 0 00-.829-.647l.003-.001a13.618 13.618 0 01-3.108 0 .732.732 0 00-.814.636.727.727 0 00.643.805c1.145.132 2.302.132 3.447 0a.727.727 0 00.658-.792zm8.84-22.946a.74.74 0 00-1.033-.09.72.72 0 00-.091 1.024 12.936 12.936 0 01-.778 17.648.719.719 0 00-.002 1.025.74.74 0 001.037.002 14.374 14.374 0 00.867-19.609zM17.086 9.611h-.004.004zm8.374-1.928a14.96 14.96 0 00-8.633.524.722.722 0 00.258 1.403.741.741 0 00.256-.047 13.47 13.47 0 017.773-.47.724.724 0 10.345-1.41zM12.65 30.98a12.887 12.887 0 01-3.85-9.206 12.85 12.85 0 012.523-7.674.72.72 0 00-.145-1.015.739.739 0 00-1.04.161 14.371 14.371 0 001.472 18.76.74.74 0 001.039 0 .72.72 0 000-1.026z"/></g><defs><clipPath id="clip0_669_820"><path fill="#fff" transform="translate(0 .03)" d="M0 0h44v43.489H0z"/></clipPath></defs></svg>
